X:57 
T:Duet II (Martini's Favorite Minuet)
B:OFPC2.88
C:file ID: ofpc.2/57mart
Q:120
M:3/4
L:1/8
R:waltz
V:1 program 1 73 volume=70 % flute
V:2 program 1 40 % fiddle
K:D
[V:1] d3f e2|e3g f2|d2 e2 fd|g2 e2 z2|
[V:2] F3A c2|c3e d2|F2 c2 d2|e2 c2 z2|
%
[V:1] "5"gfedcB|A4 Bc|da f2 e2|d6 :|
[V:2]    edcBAG|F4 GE|F2 D2 c2|[F6B6] :|
%
P:2
[V:1] "9"a2 abag|g2 fdfa |g2 g3f|fedcBA|
[V:2]    f2 fgfe|d2 dadf |e2 e3d|dcBAGF|
%
[V:1] "13"d2 d/c/d/e/ f2|B2 B/A/B/c/ d2|ef ge fd|cdec A2|
[V:2]     F2 F/E/F/G/ A2|G2 G/F/G/A/ B2|cd ec dB|A2 z4  |
%
[V:1] "17"d3f e2|e3g f2|d2 e2 f2|g2 e2 z2|
[V:2]     F3A c2|c3e d2|F2 c2 d2|e2 c2 z2|
%
[V:1] "21"gf ed cB|A4 Bc|dA f2 e2|d4 z2||
[V:2]     ed cB AG|F4 GE|F2 d2 c2|[F6d6] ||
P:3
[V:1] |:"25"FA dd d2|GB ee e2|FA D3f |e2 dcBA|
[V:2] |:    DF FF F2|EG cc c2|DF F3d |c2 BAGF|
%
[V:1] "29"FA dd dd|GB ee ee|FA d2 c2|d6 :|
[V:2]     DF FF FF|EG cc cc|DF F2 E2|F6 :|
%
P:4
[V:1] "33"A4 Bc|d4 fd|A4 GF|FE E4|
[V:2]     F4 GE|F4 dA|F4 ED|DA A4|
%
[V:1] "37"A4 Bc|d4 fd|Aaa ggf|f2 e2 z2|
[V:2]     F4 GE|F4 dA|Fff eed|d2 c2 z2|
%
[V:1] "41"FA dd d2|GB ee e2|FA D3f |e2 dcBA|
[V:2]     DF FF F2|EG cc c2|DF F3d |c2 BAGF|
%
[V:1] "45"FA dd dd|GB ee ee|FA d2 c2|d6     |]
[V:2]     DF FF FF|EG cc cc|DF F2 E2|[F6A6] |]

